brandFactory_export/2.Regular/Puzzle _2Regular.svg

<?xml version="1.0" encoding="UTF-8"?>
<svg width="24px" height="24px" viewBox="0 0 24 24" version="1.1" xmlns="http://www.w3.org/2000/svg" xmlns:xlink="http://www.w3.org/1999/xlink">
    <title>2.Regular/Puzzle _2Regular</title>
    <g id="Symbols" stroke="none" stroke-width="1" fill="none" fill-rule="evenodd">
        <g id="2.Regular/Puzzle-_2Regular" fill="#5CB615" fill-rule="nonzero">
            <path d="M1.48571429,18.2252101 L1.48571429,20.8537815 C1.48571429,21.0016807 1.6,21.1193277 1.74453782,21.1193277 L16.8268908,21.1193277 C16.9647059,21.1193277 17.0756303,20.9983193 17.0756303,20.8537815 L17.0756303,17.2537815 C17.0756303,17.0084034 17.189916,16.7764706 17.3848739,16.6352941 C17.5798319,16.4907563 17.8285714,16.4571429 18.0571429,16.5344538 C18.4605042,16.6756303 18.8403361,16.7058824 19.092437,16.7159664 C19.1563025,16.7159664 19.2470588,16.7159664 19.3210084,16.7092437 C20.2117647,16.692437 22.1378151,16.3798319 22.1378151,13.7445378 C22.1378151,11.2302521 20.410084,10.7966387 19.3747899,10.7663866 L19.0453782,10.7663866 C18.8941176,10.7663866 18.4941176,10.7831933 18.0436975,10.9310924 C17.8218487,11.005042 17.5731092,10.9647059 17.3781513,10.8201681 C17.1865546,10.6789916 17.0756303,10.4504202 17.0756303,10.205042 L17.0756303,6.98151261 C17.0756303,6.83361345 16.9647059,6.71260504 16.8268908,6.71260504 L12.7193277,6.71260504 C12.4806723,6.71260504 12.2588235,6.59831933 12.1210084,6.4 C11.9798319,6.20504202 11.9394958,5.95294118 12.0134454,5.7210084 C12.1277311,5.3512605 12.1848739,4.95462185 12.1848739,4.50756303 C12.1848739,1.97983193 10.4470588,1.55294118 9.41176471,1.52605042 L9.09243697,1.52605042 C8.08403361,1.5394958 6.37983193,1.94285714 6.37983193,4.48403361 C6.37983193,4.94117647 6.43697479,5.35462185 6.5512605,5.7210084 C6.62184874,5.95294118 6.58151261,6.20504202 6.44369748,6.4 C6.30252101,6.59495798 6.08067227,6.71260504 5.84537815,6.71260504 L1.74789916,6.71260504 C1.60336134,6.71260504 1.48907563,6.83361345 1.48907563,6.98151261 L1.49579832,9.24369748 C1.71428571,9.25042017 2.28907563,9.27731092 2.93445378,9.50588235 C3.96302521,9.83193277 5.73109244,10.8235294 5.73109244,13.7478992 C5.73109244,16.6621849 3.96302521,17.6605042 2.91092437,17.9966387 C2.3092437,18.2016807 1.77142857,18.2319328 1.50588235,18.2319328 C1.49579832,18.2252101 1.49243697,18.2252101 1.48571429,18.2252101 M16.8268908,22.6453782 L1.74453782,22.6453782 C0.783193277,22.6453782 0,21.8420168 0,20.8571429 L0,17.4420168 C0,17.2235294 0.0907563025,17.0184874 0.248739496,16.8705882 C0.406722689,16.7260504 0.61512605,16.6554622 0.830252101,16.6857143 C0.974789916,16.702521 1.09915966,16.712605 1.18655462,16.7159664 L1.2302521,16.7159664 C1.29411765,16.7159664 1.36470588,16.7159664 1.42521008,16.7092437 C1.64033613,16.7058824 2.02016807,16.6890756 2.45378151,16.5411765 C3.64369748,16.1613445 4.24201681,15.2235294 4.24201681,13.7445378 C4.24201681,12.2621849 3.64705882,11.3210084 2.46722689,10.9512605 C2.00336134,10.7865546 1.59327731,10.7697479 1.45882353,10.7630252 L1.1394958,10.7630252 C1.07226891,10.7663866 0.957983193,10.7697479 0.820168067,10.7865546 C0.601680672,10.810084 0.4,10.7394958 0.245378151,10.5983193 C0.087394958,10.4537815 0,10.2487395 0,10.0302521 L0,6.98151261 C0,5.99327731 0.783193277,5.19327731 1.74453782,5.19327731 L4.93109244,5.19327731 C4.90756303,4.96470588 4.89411765,4.72941176 4.89411765,4.48739496 C4.89411765,1.22352941 7.05882353,0.0336134454 9.08235294,0.00672268908 L9.43193277,0.00672268908 C11.4890756,0.0638655462 13.6705882,1.27394958 13.6705882,4.50756303 C13.6705882,4.74285714 13.6571429,4.97142857 13.6336134,5.18991597 L16.8302521,5.18991597 C17.7882353,5.18991597 18.5647059,5.99327731 18.5647059,6.97815126 L18.5647059,9.26722689 C18.7663866,9.24369748 18.9344538,9.24033613 19.0487395,9.24033613 L19.4084034,9.24033613 C21.4453782,9.30084034 23.6235294,10.5142857 23.6235294,13.7411765 C23.6235294,17.005042 21.3512605,18.194958 19.4084034,18.2218487 C19.3546218,18.2285714 19.210084,18.2319328 19.0689076,18.2319328 C18.9680672,18.2285714 18.789916,18.2218487 18.5647059,18.194958 L18.5647059,20.8537815 C18.5647059,21.8420168 17.7848739,22.6453782 16.8268908,22.6453782" id="Puzzle-_2Regular"></path>
        </g>
    </g>
</svg>

<svg width="24" height="24" viewBox="0 0 24 24" xmlns="http://www.w3.org/2000/svg"><path d="M1.486 18.225v2.629a.26.26 0 00.259.265h15.082c.138 0 .249-.12.249-.265v-3.6c0-.246.114-.478.309-.619a.729.729 0 01.672-.1c.404.14.783.17 1.035.181.064 0 .155 0 .229-.007.89-.017 2.817-.33 2.817-2.964 0-2.515-1.728-2.948-2.763-2.979h-.33a3.35 3.35 0 00-1.001.165.731.731 0 01-.666-.11.76.76 0 01-.302-.616V6.982c0-.148-.111-.27-.25-.27H12.72a.725.725 0 01-.598-.312.763.763 0 01-.108-.679c.115-.37.172-.766.172-1.213 0-2.528-1.738-2.955-2.773-2.982h-.32c-1.008.013-2.712.417-2.712 2.958 0 .457.057.87.171 1.237.07.232.03.484-.107.679a.743.743 0 01-.599.313H1.748a.263.263 0 00-.259.269l.007 2.262a4.78 4.78 0 011.438.262c1.029.326 2.797 1.318 2.797 4.242 0 2.914-1.768 3.913-2.82 4.249a4.47 4.47 0 01-1.405.235c-.01-.007-.014-.007-.02-.007m15.34 4.42H1.746C.783 22.645 0 21.842 0 20.857v-3.415a.78.78 0 01.249-.571.71.71 0 01.581-.185c.145.017.27.027.357.03h.043c.064 0 .135 0 .195-.007.215-.003.595-.02 1.029-.168 1.19-.38 1.788-1.317 1.788-2.796 0-1.483-.595-2.424-1.775-2.794-.464-.164-.874-.181-1.008-.188h-.32c-.067.003-.181.007-.319.024a.724.724 0 01-.575-.189A.765.765 0 010 10.03V6.982c0-.989.783-1.789 1.745-1.789H4.93a6.885 6.885 0 01-.037-.706c0-3.263 2.165-4.453 4.188-4.48h.35c2.057.057 4.239 1.267 4.239 4.5 0 .236-.014.464-.037.683h3.196c.958 0 1.735.803 1.735 1.788v2.29c.201-.024.37-.028.484-.028h.36c2.036.06 4.215 1.274 4.215 4.501 0 3.264-2.273 4.454-4.216 4.48a3.977 3.977 0 01-.843-.026v2.659c0 .988-.78 1.791-1.738 1.791" fill="#5CB615" fill-rule="nonzero"/></svg>
